svgs/sharp-light/square-y.svg

<svg xmlns="http://www.w3.org/2000/svg" viewBox="0 0 448 512"><!--! Font Awesome Pro 6.6.0 by @fontawesome - https://fontawesome.com License - https://fontawesome.com/license (Commercial License) Copyright 2024 Fonticons, Inc. --><path d="M32 64l0 384 384 0 0-384L32 64zM0 32l32 0 384 0 32 0 0 32 0 384 0 32-32 0L32 480 0 480l0-32L0 64 0 32zM208 293.5L92.2 144l40.5 0L224 261.9 315.4 144l40.5 0L240 293.5l0 90.5 0 16-32 0 0-16 0-90.5z"/></svg>

<svg xmlns="http://www.w3.org/2000/svg" viewBox="0 0 448 512"><!--! Font Awesome Pro 6.4.0 by @fontawesome - https://fontawesome.com License - https://fontawesome.com/license (Commercial License) Copyright 2023 Fonticons, Inc. --><path d="M32 64V448H416V64H32zM0 32H32 416h32V64 448v32H416 32 0V448 64 32zM208 293.5L92.2 144h40.5L224 261.9 315.4 144h40.5L240 293.5V384v16H208V384 293.5z"/></svg>
